svg/weather/wave_line.svg

<?xml version="1.0" encoding="UTF-8"?>
<svg width="24px" height="24px" viewBox="0 0 24 24" version="1.1" xmlns="http://www.w3.org/2000/svg" xmlns:xlink="http://www.w3.org/1999/xlink">
    <title>wave_line</title>
    <g id="Icon" stroke="none" stroke-width="1" fill="none" fill-rule="evenodd">
        <g id="Weather" transform="translate(-912.000000, 0.000000)" fill-rule="nonzero">
            <g id="wave_line" transform="translate(912.000000, 0.000000)">
                <path d="M24,0 L24,24 L0,24 L0,0 L24,0 Z M12.5935,23.2578 L12.5819,23.2595 L12.5109,23.295 L12.4919,23.2987 L12.4767,23.295 L12.4057,23.2595 C12.3958,23.2564 12.387,23.259 12.3821,23.2649 L12.378,23.2758 L12.3609,23.7031 L12.3659,23.7235 L12.3769,23.7357 L12.4805,23.8097 L12.4953,23.8136 L12.5071,23.8097 L12.6107,23.7357 L12.6233,23.7197 L12.6267,23.7031 L12.6096,23.2758 C12.6076,23.2657 12.601,23.2593 12.5935,23.2578 Z M12.8584,23.1453 L12.8445,23.1473 L12.6598,23.2397 L12.6499,23.2499 L12.6472,23.2611 L12.6651,23.6906 L12.6699,23.7034 L12.6784,23.7105 L12.8793,23.8032 C12.8914,23.8069 12.9022,23.803 12.9078,23.7952 L12.9118,23.7812 L12.8777,23.1665 C12.8753,23.1546 12.8674,23.147 12.8584,23.1453 Z M12.143,23.1473 C12.1332,23.1424 12.1222,23.1453 12.1156,23.1526 L12.1099,23.1665 L12.0758,23.7812 C12.0751,23.7927 12.0828,23.8019 12.0926,23.8046 L12.1083,23.8032 L12.3092,23.7105 L12.3186,23.7024 L12.3225,23.6906 L12.3404,23.2611 L12.3372,23.2485 L12.3278,23.2397 L12.143,23.1473 Z" id="MingCute"></path>
                <path d="M18.223,6.23855 C16.810065,6.0211805 14.8771997,6.00902145 12.7147114,6.7974169 L12.3714,6.92864 C9.67229,8.00827 7.2357,8.00969 5.473,7.73851 C4.47096,7.58436 3.4659,7.34965 2.55368,6.89501 C2.0597,6.64802 1.85863,6.04693 2.10562,5.55295 C2.334485,5.09521071 2.86705852,4.88969531 3.33700843,5.05853584 L3.44418,5.1042 C4.16549,5.45535 4.9911,5.64085 5.7771,5.76177 C7.190035,5.9791395 9.12290927,5.99128952 11.2853899,5.20290174 L11.6287,5.07168 C14.3278,3.99205 16.7644,3.99062 18.5271,4.2618 C19.5143,4.41368 20.5449,4.65699 21.4464,5.10531 C21.9404,5.3523 22.1415,5.95338 21.8945,6.44736 C21.649,6.93841 21.044,7.13259 20.5541,6.89523 C19.8274,6.55255 19.0127,6.36003 18.223,6.23855 Z M18.223,12.2385 C16.810065,12.02114 14.8771997,12.0090085 12.7147114,12.797381 L12.3714,12.9286 C9.67229,14.0083 7.2357,14.0097 5.473,13.7385 C4.47096,13.5844 3.4659,13.3497 2.55368,12.895 C2.0597,12.648 1.85863,12.0469 2.10562,11.553 C2.334485,11.0952143 2.86705852,10.8897214 3.33700843,11.0585414 L3.44418,11.1042 C4.16549,11.4553 4.9911,11.6408 5.7771,11.7618 C7.190035,11.97916 9.12290927,11.9912915 11.2853899,11.202919 L11.6287,11.0717 C14.3278,9.99205 16.7644,9.99062 18.5271,10.2618 C19.5143,10.4137 20.5449,10.657 21.4464,11.1053 C21.9404,11.3523 22.1415,11.9534 21.8945,12.4474 C21.649,12.9384 21.044,13.1326 20.5541,12.8952 C19.8274,12.5526 19.0127,12.36 18.223,12.2385 Z M12.0050054,19.0692238 L12.3714,18.9286 C14.6723,18.0083 16.7357,18.0097 18.223,18.2385 C19.0127,18.36 19.8274,18.5526 20.5541,18.8952 C21.044,19.1326 21.649,18.9384 21.8945,18.4474 C22.1415,17.9534 21.9404,17.3523 21.4464,17.1053 C20.5449,16.657 19.5143,16.4137 18.5271,16.2618 C16.8445227,16.0029273 14.5479167,15.992436 11.9950934,16.9310762 L11.6287,17.0717 C9.32781,17.992 7.2644,17.9906 5.7771,17.7618 C5.10338571,17.6581714 4.4005702,17.5070082 3.75927901,17.2448327 L3.44418,17.1042 C2.95079,16.8596 2.35209,17.06 2.10562,17.553 C1.85863,18.0469 2.0597,18.648 2.55368,18.895 C3.4659,19.3497 4.47096,19.5844 5.473,19.7385 C7.15557727,19.9973727 9.45217415,20.007864 12.0050054,19.0692238 L12.0050054,19.0692238 Z" id="形状" fill="#09244B"></path>
            </g>
        </g>
    </g>
</svg>

<svg xmlns="http://www.w3.org/2000/svg" width="24" height="24"><g fill="none" fill-rule="nonzero"><path d="M24 0v24H0V0h24ZM12.594 23.258l-.012.002-.071.035-.02.004-.014-.004-.071-.036c-.01-.003-.019 0-.024.006l-.004.01-.017.428.005.02.01.013.104.074.015.004.012-.004.104-.074.012-.016.004-.017-.017-.427c-.002-.01-.009-.017-.016-.018Zm.264-.113-.014.002-.184.093-.01.01-.003.011.018.43.005.012.008.008.201.092c.012.004.023 0 .029-.008l.004-.014-.034-.614c-.003-.012-.01-.02-.02-.022Zm-.715.002a.023.023 0 0 0-.027.006l-.006.014-.034.614c0 .012.007.02.017.024l.015-.002.201-.093.01-.008.003-.011.018-.43-.003-.012-.01-.01-.184-.092Z"/><path fill="#09244B" d="M18.223 6.239a11.08 11.08 0 0 0-5.508.558l-.344.132a13.106 13.106 0 0 1-6.898.81c-1.002-.155-2.007-.39-2.92-.844a1 1 0 0 1 .784-1.836l.107.045c.721.351 1.547.537 2.333.658a11.08 11.08 0 0 0 5.508-.56l.344-.13a13.106 13.106 0 0 1 6.898-.81c.987.152 2.018.395 2.92.843a1 1 0 0 1 .448 1.342 1.01 1.01 0 0 1-1.34.448c-.728-.342-1.542-.535-2.332-.656Zm0 6a11.08 11.08 0 0 0-5.508.558l-.344.132a13.105 13.105 0 0 1-6.898.81c-1.002-.155-2.007-.39-2.92-.844a1 1 0 0 1 .784-1.836l.107.045c.721.351 1.547.537 2.333.658a11.08 11.08 0 0 0 5.508-.56l.344-.13a13.106 13.106 0 0 1 6.898-.81c.987.152 2.018.395 2.92.843a1 1 0 0 1 .448 1.342 1.01 1.01 0 0 1-1.34.448c-.728-.342-1.542-.535-2.332-.656Zm-6.218 6.83.366-.14c2.301-.92 4.365-.92 5.852-.69.79.121 1.604.314 2.331.656a1.01 1.01 0 0 0 1.34-.448 1 1 0 0 0-.448-1.342c-.901-.448-1.932-.691-2.919-.843a13.08 13.08 0 0 0-6.532.67l-.366.14c-2.301.92-4.365.919-5.852.69-.674-.104-1.376-.255-2.018-.517l-.315-.14a1 1 0 0 0-.89 1.79c.912.455 1.917.69 2.919.843 1.683.26 3.98.27 6.532-.669Z"/></g></svg>
